assets/svg/map-marked.svg

<?xml version="1.0" encoding="UTF-8"?>
<svg width="1000px" height="1000px" viewBox="0 0 1000 1000" version="1.1" xmlns="http://www.w3.org/2000/svg" xmlns:xlink="http://www.w3.org/1999/xlink">
    <!-- Generator: sketchtool 52.4 (67378) - http://www.bohemiancoding.com/sketch -->
    <title>map-marked</title>
    <desc>Created with sketchtool.</desc>
    <g id="新版图标" stroke="none" stroke-width="1" fill="none" fill-rule="evenodd">
        <g id="map-marked" fill="#323233">
            <g id="商家地址库">
                <path d="M345.792883,611.111111 C420.118762,696.518434 500.368689,750 500,750 C499.631311,750 579.881238,696.518434 654.207117,611.111111 L747.139941,611.111111 C765.675203,611.111111 782.98959,620.354915 793.302361,635.756301 L942.102403,857.978523 C959.173727,883.473324 952.345149,917.979986 926.850348,935.051309 C917.704838,941.175145 906.946422,944.444444 895.939983,944.444444 L103.433948,944.444444 C72.7514624,944.444444 47.8783929,919.571375 47.8783929,888.888889 C47.8783929,877.977498 51.0915212,867.307682 57.1168577,858.210772 L204.305707,635.98855 C214.595588,620.453134 231.988668,611.111111 250.622798,611.111111 L345.792883,611.111111 Z M277.777778,833.333333 L722.222222,833.333333 L722.222222,888.888889 L277.777778,888.888889 L277.777778,833.333333 Z M500,685.185185 C500,685.185185 277.777778,518.518519 277.777778,333.333333 C277.777778,210.603389 377.270056,111.111111 500,111.111111 C622.729944,111.111111 722.222222,210.603389 722.222222,333.333333 C722.222222,518.518519 500,685.185185 500,685.185185 Z M500,416.666667 C546.023729,416.666667 583.333333,379.357062 583.333333,333.333333 C583.333333,287.309604 546.023729,250 500,250 C453.976271,250 416.666667,287.309604 416.666667,333.333333 C416.666667,379.357062 453.976271,416.666667 500,416.666667 Z" id="Combined-Shape"></path>
            </g>
        </g>
    </g>
</svg>

<svg width="1000" height="1000" xmlns="http://www.w3.org/2000/svg"><path d="M345.793 611.111C420.119 696.518 500.369 750 500 750c-.369 0 79.881-53.482 154.207-138.889h92.933a55.556 55.556 0 0 1 46.162 24.645l148.8 222.223c17.072 25.494 10.243 60.001-15.252 77.072a55.556 55.556 0 0 1-30.91 9.393H103.434c-30.683 0-55.556-24.873-55.556-55.555a55.556 55.556 0 0 1 9.239-30.678l147.189-222.222a55.556 55.556 0 0 1 46.317-24.878h95.17zm-68.015 222.222h444.444v55.556H277.778v-55.556zM500 685.185S277.778 518.52 277.778 333.333c0-122.73 99.492-222.222 222.222-222.222s222.222 99.492 222.222 222.222C722.222 518.52 500 685.185 500 685.185zm0-268.518c46.024 0 83.333-37.31 83.333-83.334C583.333 287.31 546.023 250 500 250c-46.024 0-83.333 37.31-83.333 83.333 0 46.024 37.31 83.334 83.333 83.334z" fill="#323233" fill-rule="evenodd"/></svg>
